flaticon/constructions/wrench-1.svg

<svg xmlns="http://www.w3.org/2000/svg" width="32" height="32" viewBox="0 0 24 24">
    <path d="M 12.542969 21.195312 L 13.0625 20.675781 C 13.222656 20.515625 13.222656 20.277344 13.0625 20.117188 C 12.902344 19.957031 12.664062 19.957031 12.503906 20.117188 L 11.980469 20.636719 L 11.460938 20.117188 C 11.300781 19.957031 11.0625 19.957031 10.902344 20.117188 C 10.742188 20.277344 10.742188 20.515625 10.902344 20.675781 L 11.421875 21.195312 L 10.902344 21.71875 C 10.742188 21.878906 10.742188 22.117188 10.902344 22.277344 C 10.980469 22.359375 11.0625 22.398438 11.179688 22.398438 C 11.300781 22.398438 11.382812 22.359375 11.460938 22.277344 L 11.980469 21.757812 L 12.503906 22.277344 C 12.582031 22.359375 12.664062 22.398438 12.78125 22.398438 C 12.902344 22.398438 12.984375 22.359375 13.0625 22.277344 C 13.222656 22.117188 13.222656 21.878906 13.0625 21.71875 Z M 12.542969 21.195312"/>
    <path d="M 13.542969 13.1875 L 13.542969 10.785156 C 13.542969 8.777344 13.804688 7.105469 14.289062 5.480469 C 14.875 4.867188 15.226562 4.074219 15.226562 3.21875 C 15.226562 2.257812 14.785156 1.335938 14.023438 0.734375 C 13.945312 0.65625 13.785156 0.617188 13.664062 0.65625 C 13.503906 0.695312 13.421875 0.816406 13.382812 0.9375 L 12.78125 3.136719 C 12.222656 3.296875 11.621094 3.136719 11.261719 2.738281 L 11.222656 2.699219 L 11.78125 0.496094 C 11.820312 0.375 11.78125 0.253906 11.703125 0.136719 C 11.621094 0.015625 11.460938 -0.0234375 11.339844 0.015625 C 9.621094 0.375 8.539062 1.976562 8.820312 3.699219 C 8.929688 4.304688 9.199219 4.847656 9.578125 5.285156 C 9.578125 5.289062 9.578125 5.296875 9.578125 5.300781 C 10.140625 6.980469 10.378906 8.703125 10.378906 10.785156 L 10.378906 13.1875 C 10.378906 14.171875 10.324219 15.425781 10.199219 16.664062 C 10.1875 16.703125 10.179688 16.746094 10.179688 16.792969 C 10.179688 16.800781 10.179688 16.808594 10.179688 16.816406 C 10.078125 17.773438 9.933594 18.714844 9.746094 19.5 C 9.390625 19.96875 9.179688 20.554688 9.179688 21.195312 C 9.179688 22.757812 10.421875 24 11.980469 24 C 13.542969 24 14.785156 22.757812 14.785156 21.195312 C 14.785156 20.550781 14.574219 19.960938 14.214844 19.492188 C 13.730469 17.652344 13.542969 14.96875 13.542969 13.1875 Z M 11.980469 18.394531 C 11.519531 18.394531 11.085938 18.503906 10.703125 18.695312 C 10.800781 18.21875 10.878906 17.707031 10.941406 17.191406 L 11.582031 17.191406 C 11.820312 17.191406 11.980469 17.03125 11.980469 16.792969 C 11.980469 16.550781 11.820312 16.390625 11.582031 16.390625 L 11.027344 16.390625 C 11.054688 16.125 11.078125 15.855469 11.09375 15.589844 L 11.582031 15.589844 C 11.820312 15.589844 11.980469 15.429688 11.980469 15.191406 C 11.980469 14.949219 11.820312 14.789062 11.582031 14.789062 L 11.140625 14.789062 C 11.167969 14.210938 11.179688 13.667969 11.179688 13.1875 L 11.179688 10.785156 C 11.179688 9.066406 11.019531 7.542969 10.660156 6.101562 C 10.902344 6.179688 11.101562 6.261719 11.339844 6.339844 C 11.820312 6.425781 12.300781 6.410156 12.753906 6.296875 C 12.941406 6.253906 13.121094 6.199219 13.296875 6.128906 C 12.941406 7.5625 12.78125 9.074219 12.78125 10.785156 L 12.78125 13.1875 C 12.78125 14.707031 12.902344 16.898438 13.261719 18.695312 C 12.878906 18.503906 12.445312 18.394531 11.980469 18.394531 Z M 10.820312 1.054688 L 10.421875 2.65625 C 10.378906 2.816406 10.378906 2.9375 10.460938 3.019531 L 10.660156 3.21875 C 11.222656 3.898438 12.183594 4.140625 13.023438 3.859375 L 13.222656 3.820312 C 13.34375 3.777344 13.421875 3.660156 13.464844 3.539062 L 13.945312 1.816406 C 14.222656 2.21875 14.382812 2.65625 14.382812 3.179688 C 14.382812 3.898438 14.0625 4.578125 13.503906 5.019531 C 12.941406 5.460938 12.222656 5.660156 11.5 5.5 C 10.539062 5.339844 9.78125 4.539062 9.621094 3.578125 C 9.417969 2.539062 9.941406 1.535156 10.820312 1.054688 Z M 11.980469 23.199219 C 10.859375 23.199219 9.980469 22.316406 9.980469 21.195312 C 9.980469 20.792969 10.09375 20.421875 10.292969 20.109375 C 10.324219 20.085938 10.355469 20.0625 10.378906 20.035156 C 10.742188 19.515625 11.339844 19.195312 11.980469 19.195312 C 12.621094 19.195312 13.183594 19.515625 13.582031 20.035156 C 13.609375 20.085938 13.648438 20.121094 13.695312 20.148438 C 13.878906 20.453125 13.984375 20.808594 13.984375 21.195312 C 13.984375 22.316406 13.101562 23.199219 11.980469 23.199219 Z M 11.980469 23.199219"/>
</svg>

<svg xmlns="http://www.w3.org/2000/svg" width="32" height="32" viewBox="0 0 24 24">
    <path d="M12.543 21.195l.52-.52a.385.385 0 0 0 0-.558.385.385 0 0 0-.56 0l-.523.52-.52-.52a.385.385 0 0 0-.558 0 .385.385 0 0 0 0 .559l.52.52-.52.523a.385.385 0 0 0 0 .558c.078.082.16.121.278.121.12 0 .203-.039.28-.12l.52-.52.524.52c.078.081.16.12.277.12.121 0 .203-.039.281-.12a.385.385 0 0 0 0-.56zm0 0"/>
    <path d="M13.543 13.188v-2.403c0-2.008.262-3.68.746-5.305.586-.613.938-1.406.938-2.261 0-.961-.442-1.883-1.204-2.485a.387.387 0 0 0-.359-.078c-.16.04-.242.16-.281.281l-.602 2.2c-.558.16-1.16 0-1.52-.399l-.038-.039.558-2.203c.04-.121 0-.242-.078-.36a.328.328 0 0 0-.363-.12c-1.719.359-2.8 1.96-2.52 3.683.11.606.38 1.149.758 1.586v.016c.563 1.68.8 3.402.8 5.484v2.402c0 .985-.054 2.239-.179 3.477a.446.446 0 0 0-.02.129v.023c-.1.957-.245 1.899-.433 2.684a2.792 2.792 0 0 0-.566 1.695A2.787 2.787 0 0 0 11.98 24a2.788 2.788 0 0 0 2.805-2.805c0-.644-.21-1.234-.57-1.703-.485-1.84-.672-4.523-.672-6.305zm-1.563 5.207c-.46 0-.894.109-1.277.3.098-.476.176-.988.238-1.504h.641c.238 0 .398-.16.398-.398 0-.242-.16-.402-.398-.402h-.555c.028-.266.051-.536.067-.801h.488c.238 0 .398-.16.398-.399 0-.242-.16-.402-.398-.402h-.441c.027-.578.039-1.121.039-1.601v-2.403c0-1.719-.16-3.242-.52-4.683.242.078.442.16.68.238.48.086.96.07 1.414-.043.187-.043.367-.098.543-.168-.356 1.434-.516 2.945-.516 4.656v2.402c0 1.52.121 3.711.48 5.508a2.852 2.852 0 0 0-1.28-.3zm-1.16-17.34l-.398 1.601c-.043.16-.043.281.039.364l.2.199c.562.68 1.523.922 2.362.64l.2-.039c.12-.043.199-.16.242-.28l.48-1.724c.278.403.438.84.438 1.364a2.34 2.34 0 0 1-.88 1.84c-.562.44-1.28.64-2.003.48-.96-.16-1.719-.96-1.879-1.922a2.366 2.366 0 0 1 1.2-2.523zm1.16 22.144c-1.12 0-2-.883-2-2.004 0-.402.114-.773.313-1.086a.534.534 0 0 0 .086-.074c.363-.52.96-.84 1.601-.84s1.204.32 1.602.84c.027.05.066.086.113.113.184.305.29.66.29 1.047A1.986 1.986 0 0 1 11.98 23.2zm0 0"/>
</svg>
